build/img/logotype.svg

<svg width="157" height="60" viewBox="0 0 157 60" fill="none" xmlns="http://www.w3.org/2000/svg">
<path d="M68.573 38.586H65.8331V26.6165H68.4088V28.5736C68.956 27.7403 69.5746 27.1342 70.2649 26.7554C70.9635 26.3682 71.7842 26.1746 72.7269 26.1746C73.6613 26.1746 74.4357 26.3724 75.0501 26.7681C75.6646 27.1553 76.1318 27.7487 76.4516 28.5483C77.0829 27.7234 77.7521 27.1216 78.4592 26.7428C79.1746 26.364 79.9869 26.1746 80.896 26.1746C81.6872 26.1746 82.3774 26.3219 82.9667 26.6165C83.5559 26.9027 84.0146 27.3236 84.3429 27.8791C84.4944 28.1401 84.6038 28.4515 84.6712 28.8135C84.7469 29.1754 84.7848 29.6931 84.7848 30.3665V38.586H82.045V32.4371C82.045 30.8294 81.8724 29.7731 81.5273 29.268C81.1906 28.7546 80.5845 28.4978 79.7091 28.4978C78.6317 28.4978 77.8615 28.8429 77.3986 29.5332C76.944 30.215 76.7168 31.4144 76.7168 33.1316V38.586H73.9517V32.4371C73.9517 30.9557 73.7707 29.9288 73.4088 29.3564C73.0552 28.784 72.4408 28.4978 71.5654 28.4978C71.0266 28.4978 70.5342 28.6199 70.0881 28.864C69.642 29.1081 69.2885 29.4448 69.0275 29.8741C68.8592 30.1518 68.7413 30.4927 68.674 30.8968C68.6066 31.3008 68.573 32.0457 68.573 33.1316V38.586Z" fill="white"/>
<path d="M99.7214 38.586H96.9816V37.033C96.4934 37.7232 95.921 38.2367 95.2644 38.5734C94.6163 38.9101 93.8713 39.0784 93.0296 39.0784C91.3377 39.0784 90.0036 38.5019 89.0272 37.3487C88.0592 36.1871 87.5752 34.6004 87.5752 32.5887C87.5752 30.6779 88.0718 29.1375 89.065 27.9675C90.0583 26.7891 91.3546 26.1999 92.9539 26.1999C93.9303 26.1999 94.7636 26.4061 95.4538 26.8186C96.1525 27.2226 96.6617 27.8076 96.9816 28.5736V26.6165H99.7214V38.586ZM97.0573 32.5634C97.0573 31.3261 96.7669 30.3623 96.1861 29.672C95.6137 28.9818 94.8099 28.6367 93.7745 28.6367C92.7392 28.6367 91.9227 28.9944 91.3251 29.7099C90.7359 30.417 90.4413 31.4018 90.4413 32.6644C90.4413 33.9354 90.7275 34.9161 91.2998 35.6063C91.8722 36.2965 92.6803 36.6416 93.724 36.6416C94.7089 36.6416 95.5085 36.267 96.123 35.5179C96.7459 34.7688 97.0573 33.7839 97.0573 32.5634Z" fill="white"/>
<path d="M112.108 32.5634C112.108 31.3261 111.817 30.3623 111.236 29.672C110.664 28.9818 109.86 28.6367 108.825 28.6367C107.789 28.6367 106.973 28.9944 106.375 29.7099C105.786 30.417 105.492 31.4018 105.492 32.6644C105.492 33.9354 105.778 34.9161 106.35 35.6063C106.922 36.2965 107.731 36.6416 108.774 36.6416C109.759 36.6416 110.559 36.267 111.173 35.5179C111.796 34.7688 112.108 33.7839 112.108 32.5634ZM114.772 37.8411C114.772 40.1811 114.304 41.8267 113.37 42.7779C112.436 43.7374 110.862 44.2172 108.648 44.2172C106.998 44.2172 105.681 43.8679 104.696 43.1693C103.711 42.4791 103.21 41.5574 103.194 40.4042L106.135 40.3915C106.178 40.905 106.417 41.2964 106.855 41.5658C107.293 41.8351 107.907 41.9698 108.699 41.9698C109.869 41.9698 110.71 41.7131 111.224 41.1996C111.737 40.6862 111.998 39.8276 112.007 38.6239L112.032 37.033C111.544 37.7232 110.971 38.2367 110.315 38.5734C109.667 38.9101 108.922 39.0784 108.08 39.0784C106.388 39.0784 105.054 38.5019 104.077 37.3487C103.109 36.1871 102.625 34.6004 102.625 32.5887C102.625 30.6779 103.122 29.1375 104.115 27.9675C105.109 26.7891 106.405 26.1999 108.004 26.1999C108.981 26.1999 109.814 26.4061 110.504 26.8186C111.203 27.2226 111.712 27.8076 112.032 28.5736V26.6165H114.772V37.8411Z" fill="white"/>
<path d="M130.011 39.3057L127.246 33.0811C127.036 32.6013 126.863 32.1762 126.729 31.8058C126.594 31.4271 126.472 31.0567 126.362 30.6948C126.177 31.2419 126.013 31.7133 125.87 32.1089C125.727 32.4961 125.613 32.7865 125.529 32.9801L122.688 39.3057L116.489 26.6165H119.405L122.095 32.3866C122.204 32.6307 122.309 32.9674 122.41 33.3967C122.52 33.8176 122.612 34.2848 122.688 34.7982C122.697 34.4952 122.747 34.1795 122.84 33.8513C122.932 33.523 123.088 33.119 123.307 32.6392L126.236 26.1746H126.463L129.443 32.6392C129.628 33.0432 129.763 33.4178 129.847 33.7629C129.94 34.108 129.994 34.4531 130.011 34.7982C130.087 34.3437 130.184 33.9144 130.302 33.5104C130.42 33.1063 130.554 32.7402 130.706 32.4119L133.345 26.6165H136.236L130.011 39.3057Z" fill="white"/>
<path d="M149.215 38.586H146.476V37.033C145.987 37.7232 145.415 38.2367 144.758 38.5734C144.11 38.9101 143.365 39.0784 142.524 39.0784C140.832 39.0784 139.498 38.5019 138.521 37.3487C137.553 36.1871 137.069 34.6004 137.069 32.5887C137.069 30.6779 137.566 29.1375 138.559 27.9675C139.552 26.7891 140.849 26.1999 142.448 26.1999C143.424 26.1999 144.258 26.4061 144.948 26.8186C145.647 27.2226 146.156 27.8076 146.476 28.5736V26.6165H149.215V38.586ZM146.551 32.5634C146.551 31.3261 146.261 30.3623 145.68 29.672C145.108 28.9818 144.304 28.6367 143.269 28.6367C142.233 28.6367 141.417 28.9944 140.819 29.7099C140.23 30.417 139.935 31.4018 139.935 32.6644C139.935 33.9354 140.222 34.9161 140.794 35.6063C141.366 36.2965 142.174 36.6416 143.218 36.6416C144.203 36.6416 145.003 36.267 145.617 35.5179C146.24 34.7688 146.551 33.7839 146.551 32.5634Z" fill="white"/>
<path d="M152.763 21.4399C152.763 20.9769 152.932 20.5771 153.268 20.2404C153.614 19.9037 154.022 19.7354 154.493 19.7354C154.981 19.7354 155.385 19.8995 155.705 20.2278C156.034 20.5476 156.198 20.9517 156.198 21.4399C156.198 21.9281 156.034 22.3405 155.705 22.6772C155.377 23.0055 154.973 23.1696 154.493 23.1696C154.022 23.1696 153.614 23.0013 153.268 22.6646C152.932 22.3195 152.763 21.9112 152.763 21.4399ZM153.13 38.586V26.6165H155.869V38.586H153.13Z" fill="white"/>
<path d="M18.5768 11.7705C18.5768 11.7705 10.9416 11.8259 10.2399 11.9083C8.89093 12.0627 5.89481 12.7235 4.66146 15.1959C2.98161 18.5645 6.1442 23.3368 6.1442 23.3368L10.1204 29.6939" stroke="#BFECFF" stroke-width="1.5" stroke-linecap="round"/>
<path d="M14.1693 48.1258C15.1597 47.5068 15.4607 46.2021 14.8417 45.2117C14.2227 44.2213 12.9181 43.9203 11.9277 44.5393L10.7319 45.2866C9.74153 45.9056 9.44045 47.2103 10.0595 48.2007C10.6785 49.1911 11.9831 49.4921 12.9735 48.8731L14.1693 48.1258Z" fill="white"/>
<path d="M23.0355 31.5013C24.0259 30.8823 24.327 29.5776 23.708 28.5872C23.089 27.5968 21.7843 27.2957 20.7939 27.9147L9.23594 35.1385C8.24554 35.7575 7.94446 37.0621 8.56346 38.0525C9.18246 39.0429 10.4871 39.344 11.4775 38.725L23.0355 31.5013Z" fill="white"/>
<path d="M27.1848 39.9925C28.1752 39.3735 28.4762 38.0688 27.8572 37.0784C27.2382 36.088 25.9336 35.787 24.9432 36.406L18.3388 40.5337C17.3484 41.1527 17.0474 42.4573 17.6664 43.4477C18.2854 44.4381 19.59 44.7392 20.5804 44.1202L27.1848 39.9925Z" fill="white"/>
<path d="M51.5314 29.2126C52.3018 28.7312 52.5359 27.7164 52.0545 26.9461C51.573 26.1757 50.5583 25.9416 49.7879 26.423C49.0176 26.9045 48.7834 27.9193 49.2649 28.6896C49.7463 29.4599 50.7611 29.6941 51.5314 29.2126Z" fill="white"/>
<path fill-rule="evenodd" clip-rule="evenodd" d="M41.9666 35.3739C40.7938 37.7473 39.45 40.4728 38.2447 42.9173C36.5557 46.3427 35.1388 49.2163 34.8459 49.7962C33.7269 52.0202 32.6378 52.7705 31.3237 52.6408C30.3057 52.549 28.9627 51.2691 28.8735 48.7205C28.7843 46.172 28.4782 39.1917 23.1151 42.5427C23.023 42.3954 22.9781 42.1675 22.9294 41.921C22.8721 41.6307 22.8097 41.3146 22.6594 41.0741C21.4084 39.0725 16.2614 30.7534 16.6349 30.52C17.0083 30.2866 18.7334 28.6863 17.6507 26.8472C16.7188 25.2642 15.1937 24.359 13.5441 23.38C13.2773 23.2216 13.0073 23.0614 12.736 22.896C10.2321 21.2896 9.65166 20.0467 10.2374 18.3828C10.9803 16.815 13.4293 16.8195 14.4321 16.8522C15.4142 16.8849 22.9114 16.9237 30.4218 16.9357L25.5288 30.3564C25.273 31.1441 25.3001 31.9963 25.6055 32.7661C26.1535 33.4388 26.9383 33.8762 27.7987 33.9882L41.9638 35.3712C41.9647 35.3721 41.9657 35.373 41.9666 35.3739ZM36.0917 16.939C35.8747 16.9822 35.6642 17.0595 35.4685 17.1693C35.0455 17.4067 34.7166 17.7819 34.5367 18.2324C32.8144 22.162 32.3331 23.4135 31.6482 25.1942C31.4938 25.5956 31.3291 26.0238 31.1375 26.5156C31.1105 26.5945 31.077 26.688 31.0395 26.7928C30.745 27.6156 30.2013 29.1343 30.5782 29.7372C30.902 30.2553 31.6287 30.3293 33.0109 30.47C33.2103 30.4903 33.4233 30.512 33.6506 30.5366C37.4293 30.9412 42.7686 31.4034 42.7686 31.4034C43.2433 31.3579 43.6941 31.1739 44.0651 30.8742C44.152 30.804 44.2337 30.7282 44.3096 30.6474C44.4488 30.3683 44.5712 30.1239 44.6742 29.9192L48.2556 22.7904C48.2676 22.7666 48.2801 22.7418 48.293 22.7161C49.0236 21.266 51.2618 16.8233 44.5763 16.9035C42.6627 16.9265 39.577 16.937 36.0917 16.939Z" fill="white"/>
<path d="M54.3587 22.0873C54.3587 22.0873 56.821 18.2299 54.8562 15.0192C52.8915 11.8085 47.2925 11.7602 47.2925 11.7602L26.4745 11.8719" stroke="#FE60B7" stroke-width="1.5" stroke-linecap="round"/>
<path d="M21.7822 48.6759C21.7822 48.6759 25.8898 55.2887 26.0928 55.5737C26.6558 56.3685 29.0255 59.3337 32.1998 59.0302C35.9468 58.6713 38.3202 53.4614 38.3202 53.4614L48.1784 33.7244" stroke="#A072FD" stroke-width="1.5" stroke-linecap="round"/>
</svg>

<svg width="157" height="60" fill="none" xmlns="http://www.w3.org/2000/svg"><path d="M68.573 38.586h-2.74v-11.97h2.576v1.958c.547-.834 1.166-1.44 1.856-1.819.698-.387 1.52-.58 2.462-.58.934 0 1.709.197 2.323.593.615.387 1.082.98 1.402 1.78.63-.825 1.3-1.426 2.007-1.805.716-.379 1.528-.568 2.437-.568.791 0 1.481.147 2.07.441.59.287 1.049.708 1.377 1.263.151.261.26.572.328.934.076.362.114.88.114 1.553v8.22h-2.74v-6.149c0-1.608-.173-2.664-.518-3.169-.336-.513-.942-.77-1.818-.77-1.077 0-1.847.345-2.31 1.035-.455.682-.682 1.881-.682 3.599v5.454h-2.765v-6.149c0-1.481-.181-2.508-.543-3.08-.354-.573-.968-.86-1.844-.86-.538 0-1.03.123-1.477.367-.446.244-.8.58-1.06 1.01a2.87 2.87 0 00-.354 1.023c-.067.404-.101 1.149-.101 2.235v5.454zm31.148 0h-2.74v-1.553c-.488.69-1.06 1.204-1.717 1.54-.648.337-1.393.505-2.234.505-1.692 0-3.026-.576-4.003-1.73-.968-1.16-1.452-2.748-1.452-4.76 0-1.91.497-3.45 1.49-4.62.993-1.179 2.29-1.768 3.889-1.768.976 0 1.81.206 2.5.619a3.546 3.546 0 011.528 1.755v-1.958h2.74v11.97zm-2.664-6.023c0-1.237-.29-2.2-.87-2.891-.573-.69-1.377-1.035-2.412-1.035-1.036 0-1.852.357-2.45 1.073-.59.707-.884 1.692-.884 2.954 0 1.271.287 2.252.859 2.942.572.69 1.38 1.036 2.424 1.036.985 0 1.784-.375 2.399-1.124.623-.75.934-1.734.934-2.955zm15.051 0c0-1.237-.291-2.2-.872-2.891-.572-.69-1.376-1.035-2.411-1.035-1.036 0-1.852.357-2.45 1.073-.589.707-.883 1.692-.883 2.954 0 1.271.286 2.252.858 2.942.572.69 1.381 1.036 2.424 1.036.985 0 1.785-.375 2.399-1.124.623-.75.935-1.734.935-2.955zm2.664 5.278c0 2.34-.468 3.986-1.402 4.937-.934.96-2.508 1.44-4.722 1.44-1.65 0-2.967-.35-3.952-1.049-.985-.69-1.486-1.612-1.502-2.765l2.941-.013c.043.514.282.905.72 1.175s1.052.404 1.844.404c1.17 0 2.011-.257 2.525-.77.513-.514.774-1.372.783-2.576l.025-1.591c-.488.69-1.061 1.204-1.717 1.54-.648.337-1.393.505-2.235.505-1.692 0-3.026-.576-4.003-1.73-.968-1.16-1.452-2.748-1.452-4.76 0-1.91.497-3.45 1.49-4.62.994-1.179 2.29-1.768 3.889-1.768.977 0 1.81.206 2.5.619a3.545 3.545 0 011.528 1.755v-1.958h2.74v11.225zm15.239 1.465l-2.765-6.225c-.21-.48-.383-.905-.517-1.275a25.22 25.22 0 01-.367-1.111 73.415 73.415 0 01-.492 1.414c-.143.387-.257.677-.341.871l-2.841 6.326-6.199-12.69h2.916l2.69 5.77a5.9 5.9 0 01.315 1.01c.11.422.202.889.278 1.402.009-.303.059-.619.152-.947.092-.328.248-.732.467-1.212l2.929-6.464h.227l2.98 6.464c.185.404.32.779.404 1.124.093.345.147.69.164 1.035.076-.454.173-.884.291-1.288s.252-.77.404-1.098l2.639-5.796h2.891l-6.225 12.69zm19.204-.72h-2.739v-1.553c-.489.69-1.061 1.204-1.718 1.54-.648.337-1.393.505-2.234.505-1.692 0-3.026-.576-4.003-1.73-.968-1.16-1.452-2.748-1.452-4.76 0-1.91.497-3.45 1.49-4.62.993-1.179 2.29-1.768 3.889-1.768.976 0 1.81.206 2.5.619a3.545 3.545 0 011.528 1.755v-1.958h2.739v11.97zm-2.664-6.023c0-1.237-.29-2.2-.871-2.891-.572-.69-1.376-1.035-2.411-1.035-1.036 0-1.852.357-2.45 1.073-.589.707-.884 1.692-.884 2.954 0 1.271.287 2.252.859 2.942.572.69 1.38 1.036 2.424 1.036.985 0 1.785-.375 2.399-1.124.623-.75.934-1.734.934-2.955zm6.212-11.123c0-.463.169-.863.505-1.2a1.698 1.698 0 011.225-.505c.488 0 .892.165 1.212.493.329.32.493.724.493 1.212s-.164.9-.493 1.237a1.646 1.646 0 01-1.212.493 1.7 1.7 0 01-1.225-.505 1.698 1.698 0 01-.505-1.225zm.367 17.146v-11.97h2.739v11.97h-2.739z" fill="#fff"/><path d="M18.577 11.77s-7.635.056-8.337.138c-1.35.155-4.345.816-5.579 3.288-1.68 3.368 1.483 8.14 1.483 8.14l3.976 6.358" stroke="#BFECFF" stroke-width="1.5" stroke-linecap="round"/><path d="M14.17 48.126a2.115 2.115 0 00-2.242-3.587l-1.196.748a2.115 2.115 0 002.242 3.586l1.195-.747zm8.865-16.625a2.115 2.115 0 00-2.241-3.586L9.236 35.139a2.115 2.115 0 102.241 3.586l11.558-7.224zm4.15 8.491a2.115 2.115 0 00-2.242-3.586l-6.604 4.128a2.115 2.115 0 102.241 3.586l6.605-4.127zm24.346-10.779a1.645 1.645 0 10-1.743-2.79 1.645 1.645 0 001.743 2.79z" fill="#fff"/><path fill-rule="evenodd" clip-rule="evenodd" d="M41.967 35.374c-1.173 2.373-2.517 5.099-3.722 7.543-1.69 3.426-3.106 6.3-3.4 6.88-1.118 2.223-2.207 2.974-3.521 2.844-1.018-.092-2.361-1.372-2.45-3.92-.09-2.549-.396-9.53-5.759-6.178-.092-.148-.137-.376-.186-.622-.057-.29-.12-.606-.27-.847-1.25-2.002-6.398-10.32-6.024-10.554.373-.233 2.098-1.834 1.016-3.673-.932-1.583-2.457-2.488-4.107-3.467a74.869 74.869 0 01-.808-.484c-2.504-1.606-3.084-2.85-2.499-4.513.743-1.568 3.192-1.563 4.195-1.53.982.032 8.48.07 15.99.083l-4.893 13.42a3.556 3.556 0 00.076 2.41 3.394 3.394 0 002.194 1.222l14.165 1.383.003.003zm-5.875-18.435a2.12 2.12 0 00-1.555 1.293c-1.723 3.93-2.204 5.181-2.889 6.962-.154.402-.319.83-.51 1.322l-.099.277c-.294.823-.838 2.341-.46 2.944.323.518 1.05.592 2.432.733a559.067 559.067 0 009.758.933 2.432 2.432 0 001.54-.756l.365-.728 3.582-7.129.037-.074c.73-1.45 2.969-5.893-3.717-5.813-1.913.024-4.999.034-8.484.036z" fill="#fff"/><path d="M54.359 22.087s2.462-3.857.497-7.068c-1.965-3.21-7.564-3.259-7.564-3.259l-20.818.112" stroke="#FE60B7" stroke-width="1.5" stroke-linecap="round"/><path d="M21.782 48.676s4.108 6.613 4.31 6.898c.564.794 2.934 3.76 6.108 3.456 3.747-.359 6.12-5.569 6.12-5.569l9.858-19.737" stroke="#A072FD" stroke-width="1.5" stroke-linecap="round"/></svg>
